tools/download-figma-icons/icons/outlined-medium/thumbs-up.svg

<svg width="24" height="24" viewBox="0 0 24 24" fill="none" xmlns="http://www.w3.org/2000/svg">
<path fill-rule="evenodd" clip-rule="evenodd" d="M20.3662 20.25H6.74775V11.25C6.74775 11.241 6.7455 11.2335 6.7455 11.2245C10.3687 10.9657 11.9962 8.7465 11.9962 4.125C11.9962 3.50475 12.501 3 13.1212 3C13.7407 3 14.2455 3.50475 14.2455 4.125V10.5C14.2455 10.9148 14.5807 11.25 14.9955 11.25H21.7515C22.0267 11.25 22.2112 11.4225 22.296 11.526C22.4625 11.7277 22.5337 11.9918 22.4985 12.183L20.3662 20.25ZM4.49851 21H2.24926C1.83526 21 1.49926 20.664 1.49926 20.25V11.25C1.49926 10.836 1.83526 10.5 2.24926 10.5H4.49851C4.91251 10.5 5.24851 10.836 5.24851 11.25V20.25C5.24851 20.664 4.91251 21 4.49851 21ZM23.4525 10.5712C23.022 10.0493 22.4018 9.75 21.7515 9.75H15.7455V4.125C15.7455 2.6775 14.568 1.5 13.1213 1.5C11.6738 1.5 10.497 2.6775 10.497 4.125C10.497 8.71575 8.84025 9.708 6.15975 9.74625C5.748 9.29175 5.15925 9 4.4985 9H2.24925C1.00875 9 0 10.0095 0 11.25V20.25C0 21.4905 1.00875 22.5 2.24925 22.5H4.4985C5.16075 22.5 5.751 22.2068 6.1635 21.75H20.3663C21.078 21.75 21.696 21.243 21.8258 20.5897L23.9587 12.5168C24.09 11.8418 23.9002 11.1143 23.4525 10.5712Z" fill="black"/>
</svg>

<svg xmlns="http://www.w3.org/2000/svg" width="24" height="24" fill="none" viewBox="0 0 24 24"><path fill="currentColor" fill-rule="evenodd" d="M20.366 20.25H6.748v-9l-.003-.025c3.624-.26 5.251-2.479 5.251-7.1 0-.62.505-1.125 1.125-1.125s1.124.505 1.124 1.125V10.5c0 .415.336.75.75.75h6.757c.275 0 .46.172.544.276.166.202.238.466.203.657zM4.5 21H2.25a.75.75 0 0 1-.75-.75v-9a.75.75 0 0 1 .75-.75H4.5a.75.75 0 0 1 .75.75v9a.75.75 0 0 1-.75.75m18.954-10.429a2.2 2.2 0 0 0-1.701-.821h-6.006V4.125A2.63 2.63 0 0 0 13.12 1.5a2.627 2.627 0 0 0-2.624 2.625c0 4.59-1.657 5.583-4.337 5.621A2.23 2.23 0 0 0 4.498 9H2.25C1.01 9 0 10.01 0 11.25v9c0 1.24 1.009 2.25 2.25 2.25h2.249c.662 0 1.252-.293 1.665-.75h14.202c.712 0 1.33-.507 1.46-1.16l2.133-8.073a2.38 2.38 0 0 0-.506-1.946" clip-rule="evenodd"/></svg>
